X:1
T:When the twilight gathers fast (I) - Barnby
T:James Gibb editions
%%score [ ( 1 2 ) ( 3 4 ) ] { 5 | 6 }
L:1/8
Q:1/4=84
M:3/4
K:D
V:1 treble nm="Midi_74"
V:2 treble 
V:3 treble nm="Midi_74"
V:4 treble 
V:5 treble nm="Midi_20"
V:6 bass 
V:1
"^St Theresa (77. 77. 77. 67)""^When the twilight gathers fast (I)""^Joseph Barnby\n(1838-96)""^Sopranos or Tenors." (AA) | %1
w: When the|
w: 'Mid the|
w: Well *|
 A3 B cd | B2 (B2 B2) | cB A2 E2 | F4 (AA) | ^Gd d2 G2 | c2 (F2 ^G2) | A3 B ^GA | F2 z2 z2 || %9
w: twi- light ga- thers|fast, With a|qui- et still and|deep, When the|bu- sy day has|passed, And the|wea- ry "falls on|sleep;"|
w: tread of ma- ny|feet, 'Mid the|hur- ry and the|throng, In the|bur- den and the|heat, Have the|work- ing hours seemed|long?|
w: worth the dai- ly|cross; Well *|worth the ear- nest|toil; Well *|worth re- proach and|loss, The *|fight on stran- ger|soil!|
"^Voices in harmony" (A>A) AB ce | A4!p! (AA) | AB =c2 A2 | B4"^cresc." B2 | d3 A GA | B4 B2 | %15
w: |||* Comes|joy for e- ver-|more, comes|
w: |||* While|through ce- les- tial|halls, while|
w: |||* Work|while 'tis called to-|day. work|
 e3 B ^AB | c4!f! A2 | f3 e dc | (BAGF) (E=D) | %19
w: joy for e- ver-|more, comes|joy for e- ver-|more, * * * * *|
w: through ce- les- tial|halls, while|through ce- les- tial|halls, * * * * *|
w: while 'tis called to-|day, work|while 'tis called to-|day, * * * * *|
 !>!D!>!F !>!E[Q:1/4=30] !fermata!z[Q:1/4=72] !>!D2 | !>!D4 ||"^1" G6 | F6 |] %23
w: ||||
w: ||||
w: ||||
V:2
 x2 | x6 | x6 | x6 | x6 | x6 | x6 | x6 | x6 || (E>E) ED GG | (G2 F2) ((FF)) | FF F2 D2 | D4 G2 | %13
w: |||||||||When the life- long toil is|o'er, * At the|set- ting of the|sun, Comes|
w: |||||||||Soft\- * ly the sha- dows|falls, * And the|pil- grim's race is|run; While|
w: |||||||||Let us lift our hearts and|pray, * And *|take our jour- ney|on; Work|
 F4 D2 | G4 G2 | E4 E2 | E4 E2 | A,4 ^A,2 | B,^D E2 (B,B,) | A,D C !fermata!z D2 | A,4 || D6 | %22
w: joy, comes|joy for|e- ver-|more, comes|joy for|e- ver- more, With the|Ma- ster's word "Well|done."||
w: through, while|through ce-|les- tial|halls, while|through ce-|les- tial halls, Re- *|sounds the glad "Well|done."||
w: while, work|while 'tis|called to-|day, work|while 'tis|called to- day, With the|thought of that "Well|done."|A-|
 D6 |] %23
w: |
w: |
w: men.|
V:3
[K:C] z2 | z6 | z6 | z6 | z6 |[M:3/4] z6 | z6 | z6 | z6 ||[K:D][M:3/4][K:bass] (C>C) CD A, A, | %10
 A,4!p! (DD) | =CB, A,2 C2 | (B,2 G,2) D2 | =C4 D2 | D4 D2 | B,4 G,2 | (G,2 E2)!f! C2 | D4 E2 | %18
 D=C B,2 (E,^E,) | F,A, G, !fermata!z F,2 | F,4 || B,6 | A,6 |] %23
V:4
[K:C] x2 | x6 | x6 | x6 | x6 |[M:3/4] x6 | x6 | x6 | x6 ||[K:D][M:3/4][K:bass] (G,>G,) G,F, E,C, | %10
 D,4 (D,D,) | D,D, D,2 F,2 | G,4 G,2 | D,4 =C2 | (B,2 G,2) D,2 | E,4 G,2 | A,,4 G,2 | F,4 F,2 | %18
 G,G, G,2 (G,,^G,,) | !>!A,,!>!A,, !>!A,, !fermata!z !>!D,2 | !>!D,4 || G,,6 | D,6 |] %23
V:5
 A2- | [DFA]6 | [D=F^G]6 | [C!courtesy!=G]4 [CGB]2 | [DA]4 [FA]2 | [D=F^G]6 | %6
 [C!courtesy!^F]4 [^G,DF]2 | [A,CF]4 [B,C^E]2 | [A,CF]2 [A,A]2 [A,A]2 ||[M:3/4] z6 | z6 | z6 | %12
[M:3/4] z6 | z6 | z6 | z6 |[M:3/4] z6 | z6 | z6 |[M:3/4] z6 | z4 || z6 | z6 |] %23
V:6
!pp! A,2 | [D,A,]6 | [D,B,]6 | [D,A,]4- [D,E,]2 | [D,F,]2 [D,A,]2 [D,D]2 | B,,6 | A,,4 B,,2 | %7
 C,4 C,2 | F,2 z2 z2 ||[M:3/4] x6 | x6 | x6 |[M:3/4] x6 | x6 | x6 | x6 |[M:3/4] x6 | x6 | x6 | %19
[M:3/4] x6 | x4 || x6 | x6 |] %23

